X: 1514
T: Polonäs ur Anders Fredrik Alards notbok nr 58
S: efter Anders Fredrik Alard
B: Anders Fredrik Alards notbok
M: 3/4
L: 1/16
B: [[http://www.smus.se/earkiv/fmk/browselarge.php?lang=sw&katalogid=M+131&bildnr=00015|SMUS - katalog M131 bild 15]] nr 58
B: Jämför [[http://www.smus.se/earkiv/fmk/browselarge.php?lang=sw&katalogid=M+129&bildnr=00004|katalog M129 bild 4]] nr 3
B: Jämför [[http://www.smus.se/earkiv/fmk/browselarge.php?lang=sw&katalogid=Ma+5&bildnr=00170|katalog M5 bild 170]] efter [[Personer/Sven Donat]]
B: Jämför [[http://www.smus.se/earkiv/fmk/browselarge.php?lang=sw&katalogid=M+26&bildnr=00006|katalog M26 bild 6]] efter [[Personer/Abraham Hagholm]]
B: Jämför [[http://www.smus.se/earkiv/fmk/browselarge.php?lang=sw&katalogid=MMD+50&bildnr=00017|SMUS - katalog MMD50 bild 17]] nr 40 ur [[Notböcker/Rondahls nothäfte]]
B: Jämför [[http://www.smus.se/earkiv/fmk/browselarge.php?lang=sw&katalogid=Ma+10&bildnr=00039|SMUS - katalog Ma10 bild 39]] nr 313 ur [[Notböcker/Sam Wåhlbergs notbok]]
B: Jämför [[http://www.smus.se/earkiv/fmk/browselarge.php?lang=sw&katalogid=S%F6+4&bildnr=00023|katalog Sö4]] efter bonden [[Personer/Per Fredrik Lundqvist]] från Uppland och hans notsamling "innehållande melodier som han plägat spela, och som av annan upptecknats" ([[http://www.sormlandsmusikarkiv.se/personsidor/page_sok_person_L.html#_Toc245556264|mer info om honom]]).
B: Jämför [[http://www.smus.se/earkiv/fmk/browselarge.php?lang=sw&katalogid=MMD+27&bildnr=00004|SMUS - katalog MMD27 bild 4]] nr 6 ur [[Notböcker/Johan Lundströms notbok]]
B: Jämför [[http://www.smus.se/earkiv/fmk/browselarge.php?lang=sw&katalogid=M+15a&bildnr=00012|SMUS - katalog M15a bild 12]] nr 24
B: Jämför [[Notböcker/John Johanssons noter]] [[http://www.sormlandsmusikarkiv.se/noter/johansson_john/john_johansson.html|samling 1]] (sida 4, låt nr 15) och [[http://www.sormlandsmusikarkiv.se/noter/johansson_john/john_johansson.html|samling 2]] (sida 53 låt nr 19, och sida 69 låt 33) från [[Platser/Södermanland]]
B:Jämför [[http://www.smus.se/earkiv/fmk/browselarge.php?lang=sw&katalogid=MMD+67&bildnr=00041|SMUS - katalog MMD67 bild 41]] nr 101 ur [[Notböcker/Johan Erik Carlssons notbok]]
B:Jämför [[http://www.smus.se/earkiv/fmk/browselarge.php?lang=sw&katalogid=Ma+4&bildnr=00013|SMUS - katalog Ma4 bild 13]] nr 3 ur [[Notböcker/Kumlins notsamling]]
B:Jämför [[http://www.smus.se/earkiv/fmk/browselarge.php?lang=sw&katalogid=M+133&bildnr=00042|SMUS - katalog M133 bild 42]] nr 51
B:Jämför [[http://www.smus.se/earkiv/fmk/browselarge.php?lang=sw&katalogid=MMD+66&bildnr=00063|SMUS - katalog MMD66 bild 63]] nr 14
B:Jämför [[http://www.smus.se/earkiv/fmk/browselarge.php?lang=sw&katalogid=Sm+18&bildnr=00028|SMUS - katalog Sm18 bild 28]] "af E Tollén"
B:Jämför [[http://www.smus.se/earkiv/fmk/browselarge.php?lang=sw&katalogid=M+46&bildnr=00009|SMUS - katalog M46 bild 9]] nr 19 ur [[Notböcker/Nils-Johan Nybergs notbok]]
B:Jämför [[http://www.smus.se/earkiv/fmk/browselarge.php?lang=sw&katalogid=Ma+11&bildnr=00026|SMUS Ma11 bild 26]] nr 93 ur [[Notböcker/J H Anderssons notbok]]
B:Jämför [[http://www.smus.se/earkiv/fmk/browselarge.php?lang=sw&katalogid=Ma+17&bildnr=00022|SMUS - katalog Ma17 bild 22]] nr 64
B:Jämför [[http://www.smus.se/earkiv/fmk/browselarge.php?lang=sw&katalogid=Hs+11&bildnr=00077|SMUS - katalog Hs11 bild 77]] nr 150
B:Jämför [[http://www.smus.se/earkiv/fmk/browselarge.php?lang=sw&katalogid=M+149&bildnr=00005|SMUS - katalog M149 bild 5]] nr 6
B:Jämför [[http://www.samlingarna.sormlandsspel.se/wp-content/uploads/2013/04/1832.pdf|L-G Andersson/Högbergs notbok]] nr 17 sid 7
B:Jämför [[http://www.samlingarna.sormlandsspel.se/wp-content/uploads/2013/04/ramelius_carl.pdf|Carl Råmelius notbok]] (pdf) nr 64 sid 21
N: Bland polonäserna närmast efter denna i uppteckningen på smus.se finns flera bra låtar.
O: Östergötland
R: Polonäs
Z: Nils L
K: D
DFAd f2df a2fd | e2cA d2BG F2E2 | DFAd f2df a4 | egec Acef g4 | 
fafd gbge fafd | egec d4 D4 :: DFAd f2df a2gf | e2E2 E2g2 g2fe |
f2D2 D2f2 f2ed | cdef edcB A4 | DFAd f2df a4 | egec Acef g4 | 
fafd g2ge f2fd | e2ec d4 D4 :|
(:musicend:)
(:music:)
